assets/icons/qvision/add_to_queue.svg

<svg xmlns="http://www.w3.org/2000/svg" height="24" viewBox="0 0 24 24" width="24"><path d="M0 0h24v24H0V0z" fill="none"/><path d="M21 3H3c-1.11 0-2 .89-2 2v12c0 1.1.89 2 2 2h5v2h8v-2h5c1.1 0 1.99-.9 1.99-2L23 5c0-1.11-.9-2-2-2zm0 14H3V5h18v12zm-5-7v2h-3v3h-2v-3H8v-2h3V7h2v3h3z"/></svg>

<svg width="24" height="24" viewBox="0 0 24 24" fill="none" xmlns="http://www.w3.org/2000/svg">
<g clip-path="url(#clip0_147_1371)">
<path d="M21 3H3C1.89 3 1 3.89 1 5V17C1 18.1 1.89 19 3 19H8V21H16V19H21C22.1 19 22.99 18.1 22.99 17L23 5C23 3.89 22.1 3 21 3ZM21 17H3V5H21V17ZM16 10V12H13V15H11V12H8V10H11V7H13V10H16Z" fill="#323232"/>
</g>
<defs>
<clipPath id="clip0_147_1371">
<rect width="24" height="24" fill="white"/>
</clipPath>
</defs>
</svg>
